packages/tokens/icons/truck/size32Px.svg

<svg viewBox="0 0 32 32" fill="none" xmlns="http://www.w3.org/2000/svg" width="1em" height="1em"><circle cx="25" cy="23" r="2.5" stroke="currentColor" stroke-linecap="round"/><circle cx="8" cy="23" r="2.5" stroke="currentColor" stroke-linecap="round"/><path d="M26.9999 13.5C26.9999 13.5 26.4031 13.5 25.6667 13.5C25.1144 13.5 24.6665 13.9477 24.6665 14.5L24.6665 15.4167C24.6665 15.969 25.1142 16.4167 25.6665 16.4167H28.4582" stroke="currentColor" stroke-linecap="round"/><path d="M20.5 10.5H24.6871C25.4412 10.5 26.1312 10.9242 26.4717 11.5971L29.2429 17.0742C29.3845 17.3542 29.4583 17.6635 29.4583 17.9772V21.5C29.4583 22.0523 29.0106 22.5 28.4583 22.5H27.5" stroke="currentColor"/><path d="M20.4998 18.5L2.99976 18.5" stroke="currentColor" stroke-linecap="round"/><path d="M10.5 22.5L22.5 22.5" stroke="currentColor" stroke-linecap="round" stroke-linejoin="round"/><path d="M20.4999 22.5L20.536 9.50555C20.539 8.39882 19.6427 7.5 18.536 7.5L4.5415 7.5C3.43693 7.5 2.5415 8.39543 2.5415 9.5L2.5415 21.5C2.5415 22.0523 2.98922 22.5 3.5415 22.5H5.49988" stroke="currentColor"/><path d="M7 13.5L9.5 16L15.5 10.5" stroke="currentColor" stroke-linecap="round" stroke-linejoin="round"/></svg>

<svg xmlns="http://www.w3.org/2000/svg" fill="none" viewBox="0 0 32 32" width="1em" height="1em"><circle cx="25" cy="23" r="2.5" stroke="currentColor" stroke-linecap="round"/><circle cx="8" cy="23" r="2.5" stroke="currentColor" stroke-linecap="round"/><path stroke="currentColor" stroke-linecap="round" d="M27 13.5h-1.333a1 1 0 0 0-1 1v.917a1 1 0 0 0 1 1h2.791"/><path stroke="currentColor" d="M20.5 10.5h4.187a2 2 0 0 1 1.785 1.097l2.77 5.477a2 2 0 0 1 .216.903V21.5a1 1 0 0 1-1 1H27.5"/><path stroke="currentColor" stroke-linecap="round" d="M20.5 18.5H3"/><path stroke="currentColor" stroke-linecap="round" stroke-linejoin="round" d="M10.5 22.5h12"/><path stroke="currentColor" d="m20.5 22.5.036-12.994a2 2 0 0 0-2-2.006H4.541a2 2 0 0 0-2 2v12a1 1 0 0 0 1 1H5.5"/><path stroke="currentColor" stroke-linecap="round" stroke-linejoin="round" d="M7 13.5 9.5 16l6-5.5"/></svg>
